!!!!SEGMENT: pl-kk--kk-i-389--001-005_kottritsch-franciszek--missa-no-1-sanctus.krn
!!!cenid: 17xx:2456
!!!COM: Kottritsch, Franciszek
!!!COM-rismID: pe30040598
!!!CDT: ~1727-1787
!!!CNT:
!!!OPR: [Missa] No. 1.
!!!OTL: Sanctus
!!!OMV: 005
!!!PDT:
!!!AGN: Sacred; Mass
!!!YEC: Copyright 2022 Narodowy Instytut Fryderyka Chopina (https://polishscores.org)
!!!YEM: License CC-BY-4.0 (https://creativecommons.org/licenses/by/4.0)
!!!SMS-siglum: PL-Kk
!!!SMS-shelfmark: Kk.I.389
!!!SMS-variant:
!!!SMS-altvar:
!!!SMS-shelfwork: 001-005 M
!!!NIFC-rismSourceID: 1001146182
!!!NIFC-rismChildID: 1001146200
!!!NIFC-islandoraID: pl-kk:6976
!!!URL-pdf-islandora: https://repozytorium.nifc.pl/islandora/object/pl-kk%3A6976/datastream/PDF/view
!!!URL-scan: https://polish.musicsources.pl/pl/lokalizacje/galeria/rekopisy/5999/1 @EN{Scan on Polish Music Sources Website} @PL{Skany w portalu Dziedzictwo Muzyki Polskiej w otwartym dostępie}
!!!IIIF:
!!!ONB-nifc: UWAGA: S – skan 1-3, A – 20-22, T – 39-41 , B – 58-60. Części Mszy: Rorate, Kyrie, Gloria, Graduale, Sanctus, Benedictus, Agnus, Dona.
!!!OMD:
!!!AIN: 1 alto 1 bass 1 soprn 1 tenor
!!!key: C
**kern	**text	**kern	**text	**kern	**text	**kern	**text
*part4	*part4	*part3	*part3	*part2	*part2	*part1	*part1
*staff4	*staff4	*staff3	*staff3	*staff2	*staff2	*staff1	*staff1
*ICvox	*	*ICvox	*	*ICvox	*	*ICvox	*
*Ibass	*	*Itenor	*	*Ialto	*	*Isoprn	*
*I"Basso.	*	*I"Tenore.	*	*I"Alto.	*	*I"Soprano.	*
*I'B.	*	*I'T.	*	*I'A.	*	*I'S.	*
*clefF4	*	*clefC4	*	*clefC3	*	*clefC1	*
*k[]	*	*k[]	*	*k[]	*	*k[]	*
*C:	*	*C:	*	*C:	*	*C:	*
*M2/2	*	*M2/2	*	*M2/2	*	*M2/2	*
*met(C|)	*	*met(C|)	*	*met(C|)	*	*met(C|)	*
=1	=1	=1	=1	=1	=1	=1	=1
*4\right	*	*	*	*	*	*	*
4C\	San-	1G	San-	1e	San-	1cc	San-
4E\	.	.	.	.	.	.	.
4G\	.	.	.	.	.	.	.
4c\	.	.	.	.	.	.	.
=2	=2	=2	=2	=2	=2	=2	=2
*	*	*4\right	*	*4\right	*	*4\right	*
4G\	-ctus	4B\	-ctus	4d\	-ctus	4b\	-ctus
*	*	*	*	*8\right	*	*8\right	*
4r	.	4r	.	8d\L	san-	8b\L	san-
.	.	.	.	8e\J	.	8cc\J	.
2r	.	2r	.	8f\L	.	8dd\L	.
.	.	.	.	8e\	.	8cc\	.
.	.	.	.	8f\	.	8dd\	.
.	.	.	.	8d\J	.	8b\J	.
=3	=3	=3	=3	=3	=3	=3	=3
4C\	San-	1G	San-	4e\	-ctus	4cc\	-ctus
*	*	*	*	*2\right	*	*2\right	*
4E\	.	.	.	2e\	san-	2cc\	San-
4G\	.	.	.	.	.	.	.
4c\	.	.	.	4e\	-ctus	4cc\	-ctus
=4	=4	=4	=4	=4	=4	=4	=4
4G\	-ctus,	4G/	-ctus	4d\	San-	(4b\	San-
4r	.	2G/	San-	8d\L	.	8b\L	.
.	.	.	.	8e\J	.	8cc\J	.
2r	.	.	.	8f\L	.	8dd\L	.
.	.	.	.	8e\	.	8cc\	.
.	.	4G/	-ctus	8f\	.	8dd\	.
.	.	.	.	8d\J	.	8b\J)	-ctus
!	!	!	!	!LO:LB:g=original	!	!LO:LB:g=original	!
=5	=5	=5	=5	=5	=5	=5	=5
4c\	san-	4G/	san-	1e	.	1cc	san-
4A\	.	4c\	.	.	.	.	.
4G\	.	4B\	.	.	.	.	.
4F#X\	.	4A\	.	.	.	.	.
=6	=6	=6	=6	=6	=6	=6	=6
*2\right	*	*2\right	*	*	*	*	*
2G\	-ctus	2B\	-ctus	2d\	-ctus	2b\	-ctus,
2r	.	2r	.	2r	.	2r	.
!LO:LB:g=original	!	!LO:LB:g=original	!	!	!	!	!
=7	=7	=7	=7	=7	=7	=7	=7
4.Fn\	Do-	4.G/	Do-	4.d\	Do-	4.b\	Do-
*8\right	*	*	*	*	*	*	*
8F\	-mi-	8G/	-mi-	8d\	-mi-	8b\	-mi-
2F\	-nus	2G/	-nus	2d\	-nus	2b\	-nus
=8	=8	=8	=8	=8	=8	=8	=8
4.E\	De-	2G/	De-	4.e\	De-	4.cc\	De-
8D\	.	.	.	8f\	.	8dd\	.
2C/	-us	2c\	-us	2g\	-us	2ee\	-us
=9	=9	=9	=9	=9	=9	=9	=9
4C\	sa-	2.G/	sa-	2.e\	sa-	2.cc\	sab-
4D\	.	.	.	.	.	.	.
4E\	.	.	.	.	.	.	.
4F#X\	-ba-	4A/	-ba-	4e\	-ba-	4cc\	-ba-
=10	=10	=10	=10	=10	=10	=10	=10
1G;	-ot,	1G;	-ot,	1d;	-ot,	1b;	-ot,
=11||	=11||	=11||	=11||	=11||	=11||	=11||	=11||
!	!	!	!	!LO:TX:a:t=1.	!	!LO:TX:a:t=1.	!
2G\	Ple-	2B\	Ple-	1r	.	1r	.
4B\	-ni-	4d\	-ni-	.	.	.	.
4G\	-sunt	4B\	-sunt	.	.	.	.
=12	=12	=12	=12	=12	=12	=12	=12
4c\	ce-	4e\	ce-	4r	.	4r	.
4C/	-li	4e\	-li	4g\	ce-	4ee\	Ce-
2r	.	2r	.	4f\	-li	4dd\	-li
.	.	.	.	4e\	et	4cc\	et
!	!	!	!	!LO:LB:g=original	!	!LO:LB:g=original	!
=13	=13	=13	=13	=13	=13	=13	=13
2G\	ce-	2B\	glo-	4d\	ter-	4b\	ter-
.	.	.	.	4d\	-ra	4b\	-ra
4B\	-li	4d\	-ri-	2r	.	2r	.
4G\	et	4B\	-a	.	.	.	.
!LO:LB:g=original	!	!	!	!	!	!	!
=14	=14	=14	=14	=14	=14	=14	=14
4c\	ter-	4e\	tu-	4r	.	4r	.
4C/	-ra	4e\	-a	4g\	glo-	4ee\	glo-
2r	.	2r	.	4f\	-ri-	4dd\	-ri-
.	.	.	.	4e\	-a	4cc\	-a
!	!	!LO:LB:g=original	!	!	!	!	!
=15	=15	=15	=15	=15	=15	=15	=15
2r	.	2r	.	4d\	tu-	4b\	tu-
.	.	.	.	4d\	-o	4b\	-a,
2G\	glo-	2d\	glo-	2g\	glo-	2b\	glo-
=16	=16	=16	=16	=16	=16	=16	=16
2A\	.	2d\	.	2f#X\	.	2cc\	-ri-
2B\	.	4G/	-ri-	2fn\	.	2dd\	-a
.	.	4G/	-a	.	.	.	.
=17	=17	=17	=17	=17	=17	=17	=17
4c\	.	1G	tua	4e\	.	4cc\	glo-
4G\	.	.	.	4d\	.	4b\	.
4E\	-ri-	.	.	4e\	-ri-	4cc\	-ri-
4C\	-a	.	.	4g\	-a,	4ee\	-a
=18	=18	=18	=18	=18	=18	=18	=18
2G\	glo-	2B\	glo-	2fn\	glo-	2dd\	glo-
4E\	-ri-	4G/	-ri-	4e\	-ri-	4cc\	-ri-
4E\	-a	4G/	-a	4e\	-a	4cc\	-a
!	!	!	!	!LO:LB:g=original	!	!LO:LB:g=original	!
=19	=19	=19	=19	=19	=19	=19	=19
2G\	tu-	2B\	tu-	2d\	tu-	2b\	glo-
2c\	-a	2G/	-a	2e\	-a	4cc\	-ri-
.	.	.	.	.	.	4cc\	-a
=20	=20	=20	=20	=20	=20	=20	=20
1G	tu-	1G	tu-	2e\	tu-	2cc\	tu-
.	.	.	.	2d\	.	2b\	.
=21	=21	=21	=21	=21	=21	=21	=21
1C	-a,	1G	-a	1e	-a,	1cc	-a
!LO:LB:g=original	!	!LO:LB:g=original	!	!	!	!	!
=22||	=22||	=22||	=22||	=22||	=22||	=22||	=22||
!	!	!LO:CL:ed	!	!	!	!	!
*	*	*clefC4	*	*	*	*	*
!	!	!LO:TX:t=P:problem=niepotrzebnie wpisana zmiana klucza na basowy	!	!	!	!	!
2r	.	2r	.	2r	.	2r	.
2G\	O-	2B\	O-	2f\	O-	2dd\	O-
=23	=23	=23	=23	=23	=23	=23	=23
4C/	-san-	4G/	-san-	4e\	-san-	4cc\	-san-
4D\	-na	4G/	-na	4e\	-na	4cc\	-na
4E\	in	4G/	in	4e\	in	4cc\	in
4F\	ex-	4G/	ex-	4e\	ex-	4cc\	ex-
=24	=24	=24	=24	=24	=24	=24	=24
2G\	-cel-	2G/	-cel-	2e\	-cel-	2cc\	-cel-
4G\	-sis	4G/	-sis	4d\	-sis	4b\	-sis
8G\L	o-	8B/L	o-	8d\L	o-	8b\L	o-
8A\J	.	8A/J	.	8e\J	.	8cc\J	.
=25	=25	=25	=25	=25	=25	=25	=25
4B\	-san-	4G/	-san-	4f\	-san-	4dd\	-san-
4G\	-na	4B/	-na	4f\	-na	4dd\	-na
!	!	!	!	!LO:LB:g=original	!	!LO:LB:g=original	!
=-	=-	=-	=-	=-	=-	=-	=-
4A\	in	4A/	in	4f\	in	4dd\	in
4B\	ex-	4G/	ex-	4f\	ex-	4dd\	ex-
=26	=26	=26	=26	=26	=26	=26	=26
2c\	-cel-	2G/	-cel-	2f\	-cel-	2dd\	-cel-
4C/	-sis	4G/	-sis	4e\	-sis	4cc\	-sis,
4C/	o-	4G/	O-	4e\	o-	4cc\	o-
=27	=27	=27	=27	=27	=27	=27	=27
4C/	-san-	4G/	-san-	4g\	-san-	4ee\	-san-
8C/L	-na	8E/L	-na	4g\	-na	4ee\	-na
8D/J	.	8F/J	.	.	.	.	.
8E\L	in	8G/L	in	4g\	in	4ee\	in
8D\J	.	8F/J	.	.	.	.	.
8E\L	ex-	8G/L	ex-	4e\	ex-	4cc\	ex-
8F\J	.	8A/J	.	.	.	.	.
!LO:LB:g=original	!	!LO:LB:g=original	!	!	!	!	!
=28	=28	=28	=28	=28	=28	=28	=28
4G\	-cel-	4B\	-cel-	4d\	-cel-	4b\	-cel-
4G\	-sis,	4B\	-sis,	4d\	-sis	4b\	-sis,
4r	.	4r	.	4r	.	4r	.
4E\	o-	4G/	O-	4e\	o-	4cc\	o-
=29	=29	=29	=29	=29	=29	=29	=29
4E\	-san-	4G/	-san-	1e	-san-	1cc	-san-
4D\	.	4F/	.	.	.	.	.
4C\	.	4E/	.	.	.	.	.
4E\	.	4G/	.	.	.	.	.
=30	=30	=30	=30	=30	=30	=30	=30
2F\	-na	2A\	-na	2f\	-na	2cc\	-na
4r	.	4r	.	4r	.	4r	.
4F#X\	o-	4A\	o-	4d\	o-	4dd\	o-
=31	=31	=31	=31	=31	=31	=31	=31
4F#X\	-san-	4A/	-san-	1f#X	-san-	1dd	-san-
4E\	.	4G/	.	.	.	.	.
4D\	.	4F#X/	.	.	.	.	.
4F#\	.	4A/	.	.	.	.	.
!	!	!	!	!LO:LB:g=original	!	!LO:LB:g=original	!
=32	=32	=32	=32	=32	=32	=32	=32
2G\	-na,	2B\	-na	2g\	-na	2dd\	-na,
4r	.	4r	.	4r	.	4r	.
4G\	o-	4B\	o-	4g\	o-	4dd\	o-
=33	=33	=33	=33	=33	=33	=33	=33
4G\	-san-	4B\	-san-	1fn	-san-	1dd	-san-
4A\	.	4c\	-na	.	.	.	.
4B\	-na	4d\	in	.	.	.	.
4G\	o-	4B\	ex-	.	.	.	.
!LO:LB:g=original	!	!LO:LB:g=original	!	!	!	!	!
=34	=34	=34	=34	=34	=34	=34	=34
4c\	-san-	2G/	-cel-	2e\	-na	2cc\	.
4G\	.	.	.	.	.	.	.
4E\	.	2G/	-sis	2e\	o-	2cc\	-na
4C\	-na	.	.	.	.	.	.
=35	=35	=35	=35	=35	=35	=35	=35
4F\	in	4A/	in	4f\	-san-	4dd\	in
4D\	ex-	4A/	ex-	4f\	-na	4dd\	ex-
4G\	-cel-	2G/	-cel-	4e\	in	4cc\	-cel-
4GG/	.	.	.	4d\	ex-	4b\	.
=36	=36	=36	=36	=36	=36	=36	=36
2C/	-sis,	2G/	-sis	2e\	-celsis	2cc\	-sis
4r	.	4r	.	4r	.	4r	.
4E\	o-	4G/	o-	4e\	o-	4cc\	o-
=37	=37	=37	=37	=37	=37	=37	=37
4E\	-san-	4G/	-san-	1e	-san-	1cc	-san-
4D\	.	4F/	.	.	.	.	.
4C\	.	4E/	.	.	.	.	.
4E\	.	4G/	.	.	.	.	.
=38	=38	=38	=38	=38	=38	=38	=38
2F\	-na,	2A\	-na	2f\	-na	2cc\	-na
4r	.	4r	.	4r	.	4r	.
4F#X\	o-	4A\	o-	4d\	o-	4dd\	o-
=39	=39	=39	=39	=39	=39	=39	=39
4F#X\	-san-	4A/	-san-	1f#X	-san-	1dd	-san-
4E\	.	4G/	.	.	.	.	.
4D\	.	4F#X/	.	.	.	.	.
4F#\	.	4A/	.	.	.	.	.
!LO:LB:g=original	!	!	!	!LO:LB:g=original	!	!LO:LB:g=original	!
=40	=40	=40	=40	=40	=40	=40	=40
2G\	-na,	2B\	-na	2g\	-na	2dd\	-na
4r	.	4r	.	4r	.	4r	.
4G\	o-	4B\	o-	4g\	o-	4dd\	o-
!	!	!LO:LB:g=original	!	!	!	!	!
=41	=41	=41	=41	=41	=41	=41	=41
4G\	-san-	4B\	-san-	1fn	-san-	1dd	-san-
4A\	.	4c\	-na	.	.	.	.
4B\	-na	4d\	in	.	.	.	.
4G\	o-	4B\	ex-	.	.	.	.
=42	=42	=42	=42	=42	=42	=42	=42
4c\	-san-	2G/	-cel-	2e\	.	2cc\	.
4G\	.	.	.	.	.	.	.
4E\	.	2G/	-sis	2e\	-na	2cc\	-na
4C/	-na	.	.	.	.	.	.
=43	=43	=43	=43	=43	=43	=43	=43
4F\	in	4A/	in	4f\	in	4dd\	in
4D\	ex-	4A/	ex-	4f\	ex-	4dd\	ex-
4G\	-cel-	2G/	-cel-	4e\	-cel-	4cc\	-cel-
4GG/	.	.	.	4d\	.	4b\	.
=44	=44	=44	=44	=44	=44	=44	=44
1C	-sis.	1G	-sis.	1e	-sis.	1cc	-sis.
==	==	==	==	==	==	==	==
*-	*-	*-	*-	*-	*-	*-	*-
!!!system-decoration: [(s1,s2,s3,s4)]
!!!ENC: Berenika Jozajtis
!!!END: 2023-11-05
!!!EED: Marta Chmielewska
!!!EEV: 2023-11-26
